lib/brands/icons/jb-youtrack.svg

<svg xmlns="http://www.w3.org/2000/svg" fill="none" aria-hidden="true" viewBox="0 0 48 48"><g id="jb-youtrack-Icon"><g id="Group"><path id="Vector" fill="#0CB0F2" d="M17.7578 19.8282C23.7126 14.396 30.328 8.34027 30.5197 8.14863C30.8179 7.84498 31.1374 7.56304 31.4758 7.30497C33.9886 5.45303 37.4558 5.61742 39.782 7.6988C42.1082 9.78017 42.6557 13.2078 41.0935 15.9102C40.8108 16.4062 40.4606 16.8605 40.053 17.2601C38.7312 18.5818 33.6693 23.9531 33.6693 23.9531C33.6693 23.9531 40.3061 30.3367 40.4186 30.4211C42.0633 31.7385 42.4835 34.0676 41.4028 35.8767C40.7553 36.9446 39.6796 37.6823 38.45 37.9014C38.0847 37.9659 33.2589 33.3212 27.9296 29.5632C24.5606 33.343 17.8578 40.8599 17.8368 40.8599C14.9909 42.8509 11.5094 41.7541 9.93457 40.888C7.74934 39.6121 6.30357 37.3706 6.04243 34.8537C5.7813 32.3367 6.7361 29.8462 8.61284 28.1488C9.54086 27.3052 13.4779 23.7337 17.7524 19.8248L17.7578 19.8282Z"/><path id="Vector_2" fill="url(#paint0_linear_94_19030)" d="M29.5972 21.7678C29.4046 20.4492 28.7048 19.258 27.6469 18.4478L17.281 7.95786C15.5263 6.2007 12.9344 5.57597 10.5719 6.34073C8.20934 7.10548 6.47522 9.13053 6.08307 11.5826C5.69092 14.0347 6.70699 16.4996 8.7132 17.963L21.2267 26.6999C22.918 28.0155 25.2412 28.1651 27.0873 27.0773C28.9335 25.9895 29.9284 23.8848 29.5972 21.7678Z"/><path id="Vector_3" fill="black" d="M35.1426 12.8768H12.7295V35.2899H35.1426V12.8768Z"/><path id="Vector_4" fill="white" d="M14.9993 30.7513H23.2081V32.2362H14.9993V30.7513ZM17.9971 21.758L14.2148 15.8185H16.7363L19.0897 19.7689L21.4711 15.8185H23.9309L20.1487 21.73V25.6523H17.9915V21.758H17.9971ZM27.2425 17.8077H24.2447V15.8185H32.3695V17.8077H29.3997V25.6243H27.2425V17.8077Z"/></g></g><defs><linearGradient id="paint0_linear_94_19030" x1="21.5677" x2="7.69477" y1="20.5446" y2="6.08529" gradientUnits="userSpaceOnUse"><stop stop-color="#905CFB"/><stop offset="0.07" stop-color="#A554E6"/><stop offset="0.25" stop-color="#D641B5"/><stop offset="0.39" stop-color="#F43597"/><stop offset="0.47" stop-color="#FF318C"/></linearGradient></defs></svg>

<svg xmlns="http://www.w3.org/2000/svg" fill="none" aria-hidden="true" viewBox="0 0 48 48"><path fill="#0CB0F2" d="M17.758 19.828c5.955-5.432 12.57-11.488 12.762-11.68.298-.303.617-.585.956-.843a6.592 6.592 0 0 1 9.617 8.605 6.14 6.14 0 0 1-1.04 1.35c-1.322 1.322-6.384 6.693-6.384 6.693s6.637 6.384 6.75 6.468a4.218 4.218 0 0 1 .984 5.456A4.345 4.345 0 0 1 38.45 37.9c-.365.065-5.191-4.58-10.52-8.338-3.37 3.78-10.072 11.297-10.093 11.297-2.846 1.99-6.328.894-7.902.028a7.936 7.936 0 0 1-1.322-12.74c.928-.843 4.865-4.414 9.14-8.323l.005.003Z"/><path fill="url(#a)" d="M29.597 21.768a5.113 5.113 0 0 0-1.95-3.32L17.28 7.958a6.606 6.606 0 1 0-8.568 10.005L21.227 26.7a5.225 5.225 0 0 0 8.37-4.932Z"/><path fill="#000" d="M35.143 12.877H12.73V35.29h22.413V12.877Z"/><path fill="#fff" d="M14.999 30.751h8.209v1.485h-8.21v-1.485Zm2.998-8.993-3.783-5.94h2.522l2.353 3.95 2.382-3.95h2.46l-3.783 5.912v3.922h-2.157v-3.894h.006Zm9.245-3.95h-2.998v-1.99h8.125v1.99h-2.97v7.816h-2.157v-7.816Z"/><defs><linearGradient id="a" x1="21.568" x2="7.695" y1="20.545" y2="6.085" gradientUnits="userSpaceOnUse"><stop stop-color="#905CFB"/><stop offset=".07" stop-color="#A554E6"/><stop offset=".25" stop-color="#D641B5"/><stop offset=".39" stop-color="#F43597"/><stop offset=".47" stop-color="#FF318C"/></linearGradient></defs></svg>
